img/platforms/7.svg

<?xml version="1.0" encoding="UTF-8" standalone="no"?>
<!DOCTYPE svg PUBLIC "-//W3C//DTD SVG 1.1//EN" "http://www.w3.org/Graphics/SVG/1.1/DTD/svg11.dtd">
<svg width="100%" height="100%" viewBox="0 0 991 216" version="1.1" xmlns="http://www.w3.org/2000/svg" xmlns:xlink="http://www.w3.org/1999/xlink" xml:space="preserve" xmlns:serif="http://www.serif.com/" style="fill-rule:evenodd;clip-rule:evenodd;stroke-linejoin:round;stroke-miterlimit:2;">
    <g id="ps5_logo">
        <path id="ps_logo" d="M20.79,183C-1,176.77 -4.7,163.91 5.26,156.5C14.47,149.63 30.13,144.5 30.13,144.5L94.8,121.4L94.8,147.72L48.26,164.45C40.03,167.45 38.77,171.61 45.46,173.8C52.15,175.99 64.24,175.37 72.46,172.41L94.78,164.27L94.78,187.82C93.37,188.08 91.78,188.33 90.33,188.57C67.042,192.368 43.176,190.457 20.79,183ZM157.23,185.74L229.8,159.84C238.04,156.84 239.3,152.7 232.61,150.51C225.92,148.32 213.83,148.94 205.61,151.91L157.25,168.97L157.25,141.78L160.05,140.83C170.976,137.295 182.24,134.906 193.66,133.7C213.31,131.53 237.37,134 256.25,141.16C277.54,147.9 279.94,157.83 274.53,164.67C269.12,171.51 255.86,176.38 255.86,176.38L157.25,211.87L157.23,185.74ZM165.72,17.17C203.93,30.36 216.88,46.78 216.88,83.78C216.88,119.83 194.74,133.5 166.62,119.85L166.62,52.62C166.62,44.74 165.18,37.48 157.82,35.42C152.18,33.6 148.68,38.87 148.68,46.75L148.68,215L103.56,200.6L103.56,0C122.75,3.58 150.7,12 165.72,17.13L165.72,17.17ZM262.72,201.32C262.787,201.856 262.584,202.392 262.18,202.75C261.686,203.055 261.11,203.202 260.53,203.17L257.06,203.17L257.06,199.58L260.74,199.58C261.151,199.564 261.561,199.639 261.94,199.8C262.484,200.1 262.793,200.703 262.72,201.32ZM265.21,209.5C265.01,209.378 264.874,209.172 264.84,208.94C264.767,208.612 264.733,208.276 264.74,207.94L264.67,206.31C264.699,205.715 264.545,205.125 264.23,204.62C264.019,204.37 263.765,204.16 263.48,204C263.855,203.756 264.178,203.44 264.43,203.07C264.773,202.483 264.943,201.81 264.92,201.13C265.021,199.808 264.279,198.556 263.07,198.01C262.32,197.7 261.512,197.553 260.7,197.58L254.89,197.58L254.89,210.28L257.06,210.28L257.06,205.07L260.48,205.07C260.932,205.045 261.385,205.113 261.81,205.27C262.288,205.543 262.566,206.071 262.52,206.62L262.62,208.62C262.625,208.955 262.655,209.289 262.71,209.62C262.74,209.787 262.794,209.948 262.87,210.1L262.95,210.25L265.37,210.25L265.37,209.51L265.21,209.5ZM250.32,204.2C250.312,201.69 251.297,199.277 253.06,197.49C254.797,195.708 257.182,194.702 259.67,194.702C262.158,194.702 264.543,195.708 266.28,197.49C268.028,199.27 269.009,201.667 269.009,204.162C269.009,209.316 264.823,213.582 259.67,213.68C257.183,213.682 254.798,212.679 253.06,210.9C251.3,209.116 250.314,206.706 250.32,204.2ZM259.67,215.6C262.66,215.604 265.527,214.394 267.61,212.25C271.968,207.8 271.968,200.58 267.61,196.13C265.523,193.992 262.658,192.787 259.67,192.79C253.477,192.907 248.446,198.034 248.446,204.228C248.446,207.228 249.626,210.111 251.73,212.25C253.813,214.394 256.68,215.604 259.67,215.6Z" style="fill:rgb(111,111,111);"/>
        <path id="ps5" d="M970.58,172.41L968.66,172.41L968.66,159.26L964.26,159.26L964.26,157.42L975,157.42L975,159.26L970.6,159.26L970.58,172.41ZM983.89,168.93L988,157.42L991,157.42L991,172.42L989,172.42L989,159.88L984.45,172.41L983.23,172.41L978.7,159.88L978.7,172.41L976.8,172.41L976.8,157.41L979.8,157.41L983.89,168.93ZM945,42.94L761,42.94L761,92.82C761,92.82 760.44,112.08 784.26,112.08L896.73,112.08C901.142,112.044 905.513,112.933 909.56,114.69C915.84,117.49 922.9,123.19 922.9,134.69C922.9,145.01 917.9,150.87 912.95,154.15C908.852,156.797 904.068,158.188 899.19,158.15L761,158.15L761,172.15L915.09,172.15C915.09,172.15 950.09,170.73 950.09,134.76C950.09,116.47 939.41,107.41 929.8,102.97C923.591,100.118 916.833,98.654 910,98.68L798.53,98.68C796.673,98.704 794.838,98.268 793.19,97.41C790.81,96.12 788.19,93.56 788.19,88.52L788.19,56.75L945,56.75L945,42.94ZM529.41,158.1L529.41,172.1L607.51,172.1C616.842,172.199 625.903,168.919 633.01,162.87C640.431,156.571 644.618,147.241 644.39,137.51L644.39,78C644.309,71.411 647.261,65.137 652.39,61C655.984,58.186 660.436,56.686 665,56.75L733.09,56.75L733.09,42.94L652,42.94C652,42.94 617,43.5 617,80.52L617,136.09C617.062,140.641 615.834,145.117 613.46,149C609.967,154.84 603.562,158.341 596.76,158.13L529.41,158.1ZM349.09,42.94L349.09,56.75L488.29,56.75C492.162,56.717 495.993,57.54 499.51,59.16C505.03,61.75 511.23,67.08 511.23,77.89C511.23,88.39 505.03,93.64 499.51,96.24C495.935,97.881 492.043,98.714 488.11,98.68L384.87,98.68C378.759,98.623 372.719,99.993 367.23,102.68C358.64,106.99 349.09,117.14 349.09,133.88L349.09,171.88L375.88,171.88L375.88,134.05C375.862,131.589 376.307,129.147 377.19,126.85C379.4,121.18 384.99,112.08 398.06,112.08L502.16,112.08C505.661,112.099 509.148,111.631 512.52,110.69C522.08,107.97 538.02,100.11 538.02,77.89C538.02,43.36 503.65,42.94 503.65,42.94L349.09,42.94Z" style="fill:rgb(111,111,111);fill-rule:nonzero;"/>
    </g>
</svg>

<?xml version="1.0" encoding="UTF-8"?>
<svg xmlns="http://www.w3.org/2000/svg" viewBox="0 0 990.96 215.56">
    <defs>
        <style>.cls-1{fill-rule:evenodd;}</style>
    </defs>
    <g id="ps5_logo">
        <path id="ps_logo" class="cls-1" d="M20.79,183C-1,176.77-4.7,163.91,5.26,156.5c9.21-6.87,24.87-12,24.87-12L94.8,121.4v26.32L48.26,164.45c-8.23,3-9.49,7.16-2.8,9.35s18.78,1.57,27-1.39l22.32-8.14v23.55c-1.41.26-3,.51-4.45.75A145.79,145.79,0,0,1,20.79,183Zm136.44,2.74,72.57-25.9c8.24-3,9.5-7.14,2.81-9.33s-18.78-1.57-27,1.4l-48.36,17.06V141.78l2.8-.95a165.71,165.71,0,0,1,33.61-7.13c19.65-2.17,43.71.3,62.59,7.46,21.29,6.74,23.69,16.67,18.28,23.51s-18.67,11.71-18.67,11.71l-98.61,35.49Zm8.49-168.57c38.21,13.19,51.16,29.61,51.16,66.61,0,36.05-22.14,49.72-50.26,36.07V52.62c0-7.88-1.44-15.14-8.8-17.2-5.64-1.82-9.14,3.45-9.14,11.33V215l-45.12-14.4V0c19.19,3.58,47.14,12,62.16,17.13Zm97,184.15a1.64,1.64,0,0,1-.54,1.43,2.84,2.84,0,0,1-1.65.42h-3.47v-3.59h3.68a2.79,2.79,0,0,1,1.2.22,1.53,1.53,0,0,1,.78,1.52Zm2.49,8.18a.79.79,0,0,1-.37-.56,4.21,4.21,0,0,1-.1-1l-.07-1.63a2.93,2.93,0,0,0-.44-1.69,2.73,2.73,0,0,0-.75-.62,3.37,3.37,0,0,0,.95-.93,3.6,3.6,0,0,0,.49-1.94,3.16,3.16,0,0,0-1.85-3.12,5.71,5.71,0,0,0-2.37-.43h-5.81v12.7h2.17v-5.21h3.42a3.3,3.3,0,0,1,1.33.2,1.42,1.42,0,0,1,.71,1.35l.1,2a6.68,6.68,0,0,0,.09,1,1.8,1.8,0,0,0,.16.48l.08.15h2.42v-.74Zm-14.89-5.3a9.51,9.51,0,0,1,2.74-6.71,9.23,9.23,0,0,1,13.22,0,9.52,9.52,0,0,1-6.61,16.19,9.23,9.23,0,0,1-6.61-2.78,9.51,9.51,0,0,1-2.74-6.7Zm9.35,11.4a11.05,11.05,0,0,0,7.94-3.35,11.52,11.52,0,0,0,0-16.12,11.08,11.08,0,0,0-7.94-3.34,11.44,11.44,0,0,0-7.94,19.46,11.05,11.05,0,0,0,7.94,3.35Z"/>
        <path id="ps5" d="M970.58,172.41h-1.92V159.26h-4.4v-1.84H975v1.84h-4.4Zm13.31-3.48h0L988,157.42h3v15H989V159.88h0l-4.55,12.53h-1.22l-4.53-12.53h0v12.53H976.8v-15h3ZM945,42.94H761V92.82s-.56,19.26,23.26,19.26H896.73a31.57,31.57,0,0,1,12.83,2.61c6.28,2.8,13.34,8.5,13.34,20,0,10.32-5,16.18-9.95,19.46a25,25,0,0,1-13.76,4H761v14H915.09s35-1.42,35-37.39c0-18.29-10.68-27.35-20.29-31.79A47,47,0,0,0,910,98.68H798.53a11.24,11.24,0,0,1-5.34-1.27c-2.38-1.29-5-3.85-5-8.89V56.75H945ZM529.41,158.1v14h78.1a38.71,38.71,0,0,0,25.5-9.23,32.27,32.27,0,0,0,11.38-25.36V78a21.5,21.5,0,0,1,8-17A20,20,0,0,1,665,56.75h68.09V42.94H652s-35,.56-35,37.58v55.57A24.12,24.12,0,0,1,613.46,149a18.78,18.78,0,0,1-16.7,9.13ZM349.09,42.94V56.75h139.2a26.28,26.28,0,0,1,11.22,2.41c5.52,2.59,11.72,7.92,11.72,18.73,0,10.5-6.2,15.75-11.72,18.35a26.78,26.78,0,0,1-11.4,2.44H384.87a39.28,39.28,0,0,0-17.64,4c-8.59,4.31-18.14,14.46-18.14,31.2v38h26.79V134.05a19.66,19.66,0,0,1,1.31-7.2c2.21-5.67,7.8-14.77,20.87-14.77h104.1a37.78,37.78,0,0,0,10.36-1.39c9.56-2.72,25.5-10.58,25.5-32.8,0-34.53-34.37-34.95-34.37-34.95Z"/>
    </g>
</svg>
